docs/local/img/sprites/pass-show.svg

<svg width="23" height="15" viewBox="0 0 23 15" xmlns="http://www.w3.org/2000/svg">
<path d="M22.8538 6.88232C22.6484 6.60124 17.7526 0 11.4999 0C5.24716 0 0.3512 6.60124 0.145952 6.88205C-0.0486505 7.14871 -0.0486505 7.51038 0.145952 7.77703C0.3512 8.05811 5.24716 14.6594 11.4999 14.6594C17.7526 14.6594 22.6484 8.05807 22.8538 7.77726C23.0487 7.51065 23.0487 7.14871 22.8538 6.88232ZM11.4999 13.1429C6.89409 13.1429 2.90497 8.7615 1.72411 7.32916C2.90344 5.89557 6.88421 1.51648 11.4999 1.51648C16.1055 1.51648 20.0943 5.89709 21.2757 7.33019C20.0964 8.76374 16.1156 13.1429 11.4999 13.1429Z"/>
<path d="M11.4999 2.78023C8.99138 2.78023 6.95044 4.82117 6.95044 7.3297C6.95044 9.83824 8.99138 11.8792 11.4999 11.8792C14.0085 11.8792 16.0494 9.83824 16.0494 7.3297C16.0494 4.82117 14.0085 2.78023 11.4999 2.78023ZM11.4999 10.3627C9.82747 10.3627 8.46696 9.00211 8.46696 7.3297C8.46696 5.6573 9.82751 4.29675 11.4999 4.29675C13.1723 4.29675 14.5329 5.6573 14.5329 7.3297C14.5329 9.00211 13.1724 10.3627 11.4999 10.3627Z"/>
</svg>

<svg width="23" height="15" viewBox="0 0 23 15" xmlns="http://www.w3.org/2000/svg"><path d="M22.854 6.882C22.648 6.602 17.753 0 11.5 0 5.247 0 .35 6.601.146 6.882a.759.759 0 000 .895c.205.281 5.101 6.882 11.354 6.882 6.253 0 11.148-6.6 11.354-6.882a.758.758 0 000-.895zM11.5 13.142c-4.606 0-8.595-4.38-9.776-5.813 1.18-1.433 5.16-5.813 9.776-5.813 4.605 0 8.594 4.381 9.776 5.814-1.18 1.434-5.16 5.813-9.776 5.813z"/><path d="M11.5 2.78a4.555 4.555 0 00-4.55 4.55 4.556 4.556 0 004.55 4.55 4.555 4.555 0 004.55-4.55 4.556 4.556 0 00-4.55-4.55zm0 7.583A3.036 3.036 0 018.467 7.33 3.036 3.036 0 0111.5 4.297a3.036 3.036 0 013.033 3.033 3.036 3.036 0 01-3.033 3.033z"/></svg>
